!!!OTL: Todlen Hame
!!!id: HA006
**kern
*clefF4
*k[f#c#g#]
*A:
*M6/8
{16a
16b
=1
8.cc#
16b
8a
8.f#
16g#
8a
=2
8.e
16f#
8a
4b}
{16a
16b
=3
8.cc#
16b
8a
8.f#
16g#
8a
=4
8.e
16f#
8a
4a}
{8a
=5
8.dd
16ee
8dd
4cc#
8cc#
=6
8.b
16cc#
16dd
16cc#
4b}
{16a
16b
=7
8.cc#
16b
8a
8.f#
16g#
8a
=8
8.e
16f#
8a
4.a}
=9yy
{8.cc#
16b
8a
8.f#
16g#
8a
=10
8.e
16f#
8a
4b}
{16a
16b
=11
8.cc#
16b
8a
8.f#
16g#
8a
=12
8.e
16f#
8a
4.a}
=13yy
{8.cc#
16b
8a
8.f#
16g#
8a
=14
8.e
16f#
8a
4b}
{16a
16b
=15
8.cc#
16b
8a
8.f#
16g#
8a
=16
8.e
16f#
8a
4a}
==
*-
!!!minrhy: 16
!!!meter: 6/8
!!!cut: Todlen Hame
!!!key: HA006  16  A 6/8
!!!bem1: Vorschlge, weggelassen, Auftakt zu Beginn vereinfacht: 2 16tel, anstatt 16t
!!!bem2: a--av-b--av-av'av-av'av-
!!!fog: a--av-b--av-av'av-av'av-
!! Haydn: Volksliedbearbeitungen, Bd1
